packages/kaspersky-hexa-ui-icons/src/iconsSVGs/28x20/FlagKm.svg

<svg width="28" height="20" viewBox="0 0 28 20" fill="none" xmlns="http://www.w3.org/2000/svg">
<g clip-path="url(#clip0_5138_614)">
<path d="M0 2C0 0.895431 0.895431 0 2 0H26C27.1046 0 28 0.895431 28 2V18C28 19.1046 27.1046 20 26 20H2C0.895431 20 0 19.1046 0 18V2Z" fill="white"/>
<mask id="mask0_5138_614" style="mask-type:luminance" maskUnits="userSpaceOnUse" x="0" y="0" width="28" height="20">
<rect width="28" height="20" rx="2" fill="white"/>
</mask>
<g mask="url(#mask0_5138_614)">
<path d="M26 19.5V20H2V19.5H26ZM27.5 18V2C27.5 1.17157 26.8284 0.5 26 0.5H2C1.17157 0.5 0.5 1.17157 0.5 2V18C0.5 18.8284 1.17157 19.5 2 19.5V20C0.895431 20 0 19.1046 0 18V2C2.57702e-07 0.895431 0.895431 0 2 0H26C27.1046 0 28 0.895431 28 2V18C28 19.1046 27.1046 20 26 20V19.5C26.8284 19.5 27.5 18.8284 27.5 18Z" fill="#F5F5F5"/>
<path fill-rule="evenodd" clip-rule="evenodd" d="M0 5.33333H28V0H0V5.33333Z" fill="#FFCB49"/>
<path fill-rule="evenodd" clip-rule="evenodd" d="M0 14.6667H28V9.33334H0V14.6667Z" fill="#DC1D34"/>
<path fill-rule="evenodd" clip-rule="evenodd" d="M0 20H28V14.6667H0V20Z" fill="#4985D4"/>
<path fill-rule="evenodd" clip-rule="evenodd" d="M0 20L13.3333 10L0 0V20Z" fill="#4BA343"/>
<path fill-rule="evenodd" clip-rule="evenodd" d="M3.33333 10C3.33333 8.13616 4.60811 6.57006 6.33333 6.12602C6.01371 6.04375 5.67863 6 5.33333 6C3.12419 6 1.33333 7.79086 1.33333 10C1.33333 12.2091 3.12419 14 5.33333 14C5.67863 14 6.01371 13.9562 6.33333 13.874C4.60811 13.4299 3.33333 11.8638 3.33333 10ZM7.33333 8C7.70152 8 8 7.70152 8 7.33333C8 6.96514 7.70152 6.66667 7.33333 6.66667C6.96514 6.66667 6.66667 6.96514 6.66667 7.33333C6.66667 7.70152 6.96514 8 7.33333 8ZM8 10C8 10.3682 7.70152 10.6667 7.33333 10.6667C6.96514 10.6667 6.66667 10.3682 6.66667 10C6.66667 9.63181 6.96514 9.33333 7.33333 9.33333C7.70152 9.33333 8 9.63181 8 10ZM7.33333 13.3333C7.70152 13.3333 8 13.0349 8 12.6667C8 12.2985 7.70152 12 7.33333 12C6.96514 12 6.66667 12.2985 6.66667 12.6667C6.66667 13.0349 6.96514 13.3333 7.33333 13.3333Z" fill="white"/>
</g>
</g>
<defs>
<clipPath id="clip0_5138_614">
<rect width="28" height="20" fill="white"/>
</clipPath>
</defs>
</svg>

<svg xmlns="http://www.w3.org/2000/svg" width="28" height="20" fill="none" viewBox="0 0 28 20"><g clip-path="url(#a)"><path fill="#fff" d="M0 2C0 .8954.8954 0 2 0h24c1.1046 0 2 .8954 2 2v16c0 1.1046-.8954 2-2 2H2c-1.1046 0-2-.8954-2-2z"/><mask id="b" width="28" height="20" x="0" y="0" maskUnits="userSpaceOnUse" style="mask-type:luminance"><rect width="28" height="20" fill="#fff" rx="2"/></mask><g mask="url(#b)"><path fill="#f5f5f5" d="M26 19.5v.5H2v-.5zm1.5-1.5V2c0-.8284-.6716-1.5-1.5-1.5H2C1.1716.5.5 1.1716.5 2v16c0 .8284.6716 1.5 1.5 1.5v.5c-1.1046 0-2-.8954-2-2V2C0 .8954.8954 0 2 0h24c1.1046 0 2 .8954 2 2v16c0 1.1046-.8954 2-2 2v-.5c.8284 0 1.5-.6716 1.5-1.5"/><path fill="#ffcb49" fill-rule="evenodd" d="M0 5.3333h28V0H0z" clip-rule="evenodd"/><path fill="#dc1d34" fill-rule="evenodd" d="M0 14.6667h28V9.3333H0z" clip-rule="evenodd"/><path fill="#4985d4" fill-rule="evenodd" d="M0 20h28v-5.3333H0z" clip-rule="evenodd"/><path fill="#4ba343" fill-rule="evenodd" d="m0 20 13.3333-10L0 0z" clip-rule="evenodd"/><path fill="#fff" fill-rule="evenodd" d="M3.3333 10c0-1.8638 1.2748-3.43 3-3.874a4 4 0 0 0-1-.126c-2.2091 0-4 1.7909-4 4s1.7909 4 4 4c.3453 0 .6804-.0438 1-.126-1.7252-.4441-3-2.0102-3-3.874m4-2a.6667.6667 0 1 0 0-1.3333.6667.6667 0 0 0 0 1.3333M8 10a.6667.6667 0 1 1-1.3334 0A.6667.6667 0 0 1 8 10m-.6667 3.3333a.6666.6666 0 1 0 0-1.3333.6667.6667 0 0 0 0 1.3333" clip-rule="evenodd"/></g></g><defs><clipPath id="a"><path fill="#fff" d="M0 0h28v20H0z"/></clipPath></defs></svg>
